X: 1
T: Stobhall
C: Jimmy Shand
R: jig
B: Jimmy Shand, Scottish Dance Album Book 2 (1953) Pub. James S.Kerr, Glasgow
Z: John Chambers <jc:trillian.mit.edu>
M: 6/8
L: 1/8
K: G
BA \
| "G"G>G,B, D>EG | "D"A>GA "G"B2e | d>cB "D7"A>GA | "G"B<GD "C"E2B/A/ \
| "G"G>G,B, D>EG | "D"A>GA "G"B2e | d>cB "D7"A>GA | "G"B<GG G2 :|
c \
| "G"B<dG "C"c<eG | "G"B<dg d>BG | "C"c>de "D7"A>Bc | F>GA D2c \
| "G"B<dG "C"c<eG | "G"B<dg "D7"f>ef |"G"g>dB "D7"A>GA | "G"B>GG G2c ||
| "G"B<dG "C"c<eG | "G"B<dg d>BG | "C"c>de "D7"A>Bc | F>GA D2F \
| "G"G>AB "C"E>FG | "D7"F>GA D2e | d>cB "D7"A>GA | "G"B<GG G3 |]

%%sep 1 1 500

